X:1
T:Audi, benigne conditor
T:Giovanni Maria Nanino
T:Audi, benigne Conditor
C:Giovanni Maria Nanino
%%score [ 1 2 3 4 ]
L:1/8
Q:1/4=100
M:4/4
K:Eb
V:1 treble nm="Soprano" snm="S"
V:2 treble nm="Alto" snm="A"
V:3 treble-8 nm="Tenor" snm="T"
V:4 bass nm="Bass" snm="B"
V:1
 z8 | z8 | z8 | A4 A4 | B4 B4 | A2 c3 B A2 | GABGAB c2- | cB A4 G2 | F4 z2 A2- | AG F2 EC F2- | %10
w: |||Nos- tras|_ pre-|ces cum _ _|fle- * * * * * *|* * * ti-|bus, cum|_ _ _ _ _ _|
 F2 ED E2 E2 | F4 A4 | A4 B4 | B4 A4 | F3 G A2 F2 | G3 F/E/ F2 F2 | G4 z4 | z8 | z8 | z8 | z8 | %21
w: * fle- * * ti-|bus, nos-|tras _|pre- *|ces cum fle- *|* * * * ti-|bus,|||||
 z2 E2 A2 A2- | A2 G4 F2 | G3 ABG c2- | cB B4 =A2 | B8 | z8 | z8 | z4 G4 | =A4 B4 | G4 A4 | %31
w: In hoc sa-|* cro je-|ju- * * * *|* * * ni-|o|||Fu-|* sas|qua- dra-|
 G2 G4 F2 | G4 z2 G2- | G2 c4 F2- | F2 B4 E2- | E2 A3 G F2- | F2 =ED E2 E2 | F8- | F8 || z8 | z8 | %41
w: ge- na- ri-|o, fu-|* sas qua-|* dra- ge-|* na- * *|* * * * ri-|o.|_|||
 z8 | z8 | F4 F4 | A4 A2 F2 | G3 FGE A2- | AG/F/GA B2 c2 | F3 GAF B2- | BAAG/F/ G3 G | F4 A4- | %50
w: ||Mul- tum|qui- dem pec-|ca- * * * *|||* * * * * * vi-|mus, Sed|
 A4 A4 | B4 B4 | A8 | z2 F2 A2 GF | G2 FE F2 F2 | G8- | G4 z2 E2 | A3 A G4 | F2 F2 G4 | %59
w: _ par-|* ce|_|con- fi- ten- *|* * * * ti-|bus:|_ Ad|no- mi- nis|lau- dem tu-|
 E2 E2 A3 A | G4 F4 | G3 ABG c2- | cB B4 =A2 | B8- | B4 z4 | z2 d2 e2 d2 | c2 e2 dc c2- | %67
w: i, ad no- mi-|nis lau-|dem _ _ _ _|_ _ _ tu-|i,|_|Con- fer me-|de- lam lan- * *|
 c2 =B2 c2 G2 | A2 G2 F4 | G2 B2 c2 B2 | A2 F2 B3 A | G6 G2 | F8- | F8 || F8 | F4 A4 | A4 F2 G2- | %77
w: * gui- dis, con-|fer me- de-|lam, con- fer me-|de- lam lan- *|* gui-|dis.|_|Praes-|ta be-|a- ta Tri-|
 GF F4 =E2 | F4 z4 | z8 | z8 | z4 A4 | A4 B4 | B4 A4- | A2 GF G4 | G4 F3 G | A2 F2 G3 F | E4 z4 | %88
w: * * * ni-|tas,|||Con-|ce- *|de sim-||plex U- *|* ni- tas: _|_|
 z8 | z8 | z4 z2 E2- | E2 A4 A2 | G4 F4 | G3 A B4 | B3 ABG c2- | cB B4 =A2 | B4 z4 | z8 | z4 G4 | %99
w: ||Ut|_ fruc- tu-|o- sa|sint _ _|tu- * * * *||is||Je-|
 =A4 B4- | B4 G4 | A4 F4 | G3 G F4 | z8 | z2 G2 F2 =A2 | B2 F2 c4- | c4 c4 | =A8- | A8 |] %109
w: * ju-|* ni-|o- rum|mu- ne- ra,||Je- ju- ni-|o- rum mu-|* ne-|ra.|_|
V:2
 z8 | z8 | z8 | z8 | E4 E4 | F4 F4 | E4 C3 D | E2 F2 D2 E2- | E2 D2 C4- | C4 z4 | z4 B,4 | %11
w: ||||Nos- tras|_ pre-|* ces _|_ cum fle- *|* ti- bus,|_|nos-|
 C2 _D4 CB, | C2 F4 =ED | =E2 E2 F3 F | C4 z4 | z4 B,4 | B,2 E3 DCB, | C3 D E2 F2 | D2 E3 D C2- | %19
w: tras pre- * *|* ces _ _|_ cum fle- ti-|bus,|In|hoc sa- * * *|* * * cro|je- ju- * *|
 CB, B,4 =A,2 | B,CDB,CD E2- | EDCB, C2 B,A, | B,4 z4 | z2 G2 G2 E2 | G2 G2 F3 E | D4 B,4 | C4 D4 | %27
w: * * * ni-|o, _ _ _ _ _ _|_ _ _ _ _ _ _||In hoc sa-|cro je- ju- ni-|o Fu-|* sas|
 z8 | D4 =E4 | F4 D4 | E3 D C4 | B,4 C4 | D3 D E4- | E4 C4 | D4 E4 | C4 A,2 B,2 | C6 C2 | C8- | %38
w: |fu- *|sas qua-|dra- * *|ge- na-|* ri- o,|_ fu-|* sas|qua- dra- ge-|na- ri-|o.|
 C8 || z8 | C8 | C4 E4 | E6 C2 | D3 CDE F2- | F2 ED C2 D2 | E4 z4 | F6 F2 | A4 A2 G2- | GF F4 =E2 | %49
w: _||Mul-|tum qui-|dem pec-|ca- * * * *|* * * * vi-|mus,|mul- tum|qui- dem pec-|* * ca- vi-|
 F2 _D2 D2 C2 | _D3 C/B,/ A,2 A2 | G2 FE F2 G2 | A2 F2 F2 E2 | F3 E/_D/ C2 F2- | F2 E4 D2 | %55
w: mus, Sed par- ce|con- * * * fi-|ten- * * * ti-|bus: sed par- ce|con- * * * fi-|* ten- ti-|
 E4 z2 B,2 | E3 E C4 | F4 E4 | z2 B,2 E3 E | C4 C2 F2- | FE E4 D2 | E2 E2 G2 GG | F2 G2 E4 | %63
w: bus: Ad|no- mi- nis|lau- dem,|ad no- mi-|nis lau- *||dem, ad no- mi- nis|lau- dem tu-|
 F4 z2 D2 | E2 D2 C4 | D2 F2 G3 F | E2 C2 F3 E | D2 D2 E4- | E4 z4 | z2 G2 A2 G2 | F2 A2 GF F2- | %71
w: i, Con-|fer me- de-|lam, con- fer me-|de- lam lan- *|* gui- dis,|_|con- fer me-|de- lam lan- * *|
 F2 =ED E2 E2 | F8- | F8 || z4 C4 | _D2 D2 CB,A,B, | C_DEC D4 | C4 z2 G2 | A2 A2 GFEF | %79
w: * * * * gui-|dis.|_|Praes-|ta be- a- * * *||ta, praes-|ta be- a- * * *|
 GABG A2 A2 | G6 G2 | E4 F4 | z2 C2 E2 E2 | D2 E2 F2 _D2 | C4 z4 | z2 E2 D3 C/B,/ | C2 D2 B,2 B,2 | %87
w: * * * * * ta|Tri- ni-|tas, _|Con- ce- de|sim- plex U- ni-|tas:|Con- ce- * *|* de sim- plex|
 C2 C2 F4- | F4 z2 A2 | A2 A2 F4 | G2 G3 FED | CD E4 D2 | E4 z4 | z2 E2 E2 D2 | G4 G2 A2 | F4 F4 | %96
w: U- ni- tas:|_ Con-|ce- de sim-|plex U- * * *|* * * ni-|tas:|Ut fruc- tu-|o- sa sint|tu- is|
 z2 B,2 C2 C2 | D4 D2 E2 | C8 | C4 z2 F2- | F2 G2 G2 E2- | ED/C/ F4 B,2 | z2 G2 =A4 | =A4 B3 A | %104
w: Ut fruc- tu-|o- sa sint|tu-|is Je-|* ju- ni- o-|* * * * rum|Je- ju-|ni- o- *|
 G2 G2 FG=AF | G F2 =E/D/ E2 G2- | G2 F4 =E2 | F8- | F8 |] %109
w: * rum mu- * * *||* * ne-|ra.|_|
V:3
 F2 F2 A2 A2 | F2 G2 F2 E2 | F2 z2 z4 | z8 | z8 | z8 | z4 A4 | A4 B4 | B4 A4 | F3 G A2 F2 | G6 G2 | %11
w: Au- di, be- nig-|ne _ Con- di-|tor,||||Nos-|tras _|pre- *|ces _ _ cum|fle- ti-|
 F4 z4 | z4 B4 | B4 c4 | A3 B c2 d2 | e2 e4 d2 | e4 z4 | z8 | B4 e2 e2- | e2 d4 c2 | defd e3 d | %21
w: bus,|nos-|tras _|pre- * * ces|cum fle- ti-|bus,||In hoc sa-|* cro je-|ju- * * * * *|
 cd e4 d2 | e4 B4 | e2 e4 dc | d2 e2 c3 c | B2 d4 e2- | e2 f3 edc | d2 e2 c2 d2 | B6 B2 | c4 z4 | %30
w: * * * ni-|o, In|hoc sa- cro _|_ je- ju- ni-|o Fu- *|* sas _ _ _|_ qua- dra- ge-|na- ri-|o,|
 B4 f2 f2 | d2 e4 c2- | c2 B2 c4 | G4 A4 | B4 G4 | A4 F4 | G6 G2 | F8- | F8 || F8 | F4 A4 | %41
w: In hoc sa-|cro je- ju-|* ni- o|Fu- *|sas qua-|dra- ge-|na- ri-|o.|_|Mul-|tum qui-|
 A2 F2 GE A2- | A2 GF G2 A2 | B6 AG | F4 z4 | c4 c4 | _d4 d2 c2 | _d6 B2 | _d4 c4 | z2 f2 f2 e2 | %50
w: dem pec- ca- * *|* * * * vi-|mus, _ _|_|mul- tum|qui- dem pec-|ca- vi-|mus, _|Sed par- ce|
 f3 e/_d/ c2 f2 | e2 _dc d2 e2 | A2 _d2 d2 c2 | _d3 c/B/ A2 d2 | c4 B3 B | E8 | z2 E2 A3 A | %57
w: con- * * * fi-|ten- * * * ti-|bus: sed par- ce|con- * * * fi-|ten- * ti-|bus:|Ad no- mi-|
 F2 ABcd e2- | e2 d2 e2 E2 | A3 A F4 | G3 A B4 | E2 E2 e2 ee | d2 e2 c4 | B8 | G4 =A4 | B4 G4 | %66
w: nis lau- * * * *|* * dem, ad|no- mi- nis|lau- dem tu-|i, ad no- mi- nis|lau- dem tu-|i,|Con- *|fer me-|
 A4 F4 | G3 G c4 | c4 d4 | e4 c4 | _d4 B4 | c6 c2 | F8- | F8 || z4 F4 | B2 B2 AGFG | ABcA B2 B2 | %77
w: de- lam|lan- gui- dis,|con- *|fer me-|de- lam|lan- gui-|dis.|_|Praes-|ta be- a- * * *|* * * * * ta|
 A3 G/F/ G2 G2 | F2 A2 B2 c2 | B2 B2 AF f2- | feed/c/ d2 d2 | c4 z2 A2 | A2 A2 G2 E2 | G3 G F4 | %84
w: Tri- * * * ni-|tas, praes- ta be-|a- ta Tri- * *|* * * * * * ni-|tas, Con-|ce- de sim- plex|U- ni- tas:|
 z2 c2 c2 c2 | B2 G2 B3 A/G/ | F2 B3 G B2- | B2 =A2 B4 | z2 f2 f2 e2- | e2 f4 d2- | d2 e3 dcd | %91
w: Con- ce- de|sim- plex U- * *||* ni- tas:|Con- ce- de|_ sim- plex|_ U- * * *|
 e3 e A4 | z2 e2 e2 d2 | e4 f4 | z8 | z4 z2 F2 | F2 G2 F4 | B4 B4 | A4 G4 | F2 c2 d2 d2 | B4 e4 | %101
w: * ni- tas:|Ut fruc- tu-|o- sa||Ut|fruc- tu- o-|sa sint|tu- *|is Je- ju- ni-|o- rum|
 z8 | z4 z2 c2 | d2 d2 B4 | c4 z2 c2 | B3 A G2 =E2 | A4 G3 G | F8- | F8 |] %109
w: |Je-|ju- ni- o-|rum Je-|ju- ni- o- rum|mu- * ne-|ra.|_|
V:4
 z8 | z8 | z8 | z8 | z8 | z8 | z8 | z8 | z8 | A,4 A,4 | B,4 B,4 | A,4 F,3 G, | A,2 F,2 G,4- | %13
w: |||||||||Nos- tras|_ pre-|* ces _|_ cum fle-|
 G,4 F,4- | F,2 F,2 F,4 | E,4 z4 | E,4 A,4 | A,4 G,2 F,2 | G,4 A,4 | B,4 F,4 | B,2 B,2 A,2 G,2 | %21
w: |* ti- bus,|_|In hoc|sa- cro je-|ju- ni-|o, In|hoc sa- cro je-|
 A,3 G, F,2 F,2 | E,2 E,2 E,2 D,2 | C,D,E,F, G,2 A,2 | G,2 E,2 F,4 | z4 G,4 | A,4 B,4 | %27
w: ju- * * ni-|o, In hoc sa-|cro _ _ _ _ je-|ju- ni- o|Fu-|* sas|
 G,4 A,2 F,2 | G,6 G,2 | F,4 B,,4 | E,4 F,4 | G,2 E,2 A,3 A, | G,4 C,4- | C,4 F,4 | B,,4 E,4 | %35
w: qua- dra- ge-|na- ri-|o, fu-|sas qua-|dra- ge- na- ri-|o, fu-|* sas|qua- dra-|
 A,,4 _D,4 | C,6 C,2 | F,8- | F,8 || z8 | z8 | z8 | z8 | z8 | z8 | z8 | z8 | z8 | z8 | z8 | z8 | %51
w: ge- na-|* ri-|o.|_|||||||||||||
 z8 | z8 | z8 | z8 | z8 | z8 | z8 | z8 | z8 | z8 | z8 | z8 | z8 | z8 | z8 | z8 | z8 | z8 | z8 | %70
w: |||||||||||||||||||
 z8 | z8 | z8 | z8 || z8 | z8 | z8 | z4 C,4 | F,2 F,2 E,D,C,D, | E,F,G,E, F,2 F,2 | G,6 G,2 | %81
w: |||||||Praes-|ta be- a- * * *|* * * * * ta|Tri- ni-|
 C,2 A,2 F,4- | F,4 E,4 | z4 z2 F,2 | F,2 F,2 E,2 C,2 | E,3 E, B,,4 | z2 B,,2 E,3 D, | %87
w: tas, Con- ce-|* de|Con-|ce- de sim- plex|U- ni- tas:|Con- ce- *|
 C,4 B,,2 B,2 | B,2 B,2 A,3 B, | C2 A,2 B,3 A, | G,F, E,4 A,2- | A,G,F,E, F,2 F,2 | E,4 B,4 | %93
w: * de Con-|ce- de sim- *|* plex U- *||* * * * * ni-|tas: Ut|
 G,2 C2 B,3 A, | G,F, E,4 A,2 | B,4 F,4 | B,,2 B,2 B,2 =A,2 | B,2 B,,4 E,2 | F,4 C,4 | F,4 B,,4 | %100
w: fruc- tu- o- *|* * * sa|sint tu-|is Ut fruc- tu-|o- sa sint|tu- *|is _|
 z2 B,2 C3 B, | A,2 A,2 B,3 A, | G,2 C,2 F,4 | z2 F,2 G,2 G,2 | E,4 F,4 | B,,4 C,3 B,, | %106
w: Je- ju- ni-|o- rum mu- *|* ne- ra,|Je- ju- ni-|o- rum|mu- * *|
 A,,3 B,, C,2 C,2 | F,8- | F,8 |] %109
w: * * * ne-|ra.|_|

